korla/apps/scalable/aurees.svg

<svg width="48" height="48" xmlns="http://www.w3.org/2000/svg">
 <circle cx="24" cy="25" r="17" opacity=".2"/>
 <circle cx="24" cy="24" r="17" fill="#fff"/>
 <path d="m26 5.0996094v7.0722656a13 13 0 0 1 11 12.828125 13 13 0 0 1-0.972656 4.917969l6.083984 3.513672a20 20 0 0 0 1.888672-8.431641 20 20 0 0 0-18-19.900391z" opacity=".2"/>
 <path d="m26 4.0996094v7.0722656a13 13 0 0 1 11 12.828125 13 13 0 0 1-0.972656 4.917969l6.083984 3.513672a20 20 0 0 0 1.888672-8.431641 20 20 0 0 0-18-19.900391z" fill="#6ecc6e"/>
 <path d="m22 5.1210938a20 20 0 0 0-18 19.878906 20 20 0 0 0 1.8945312 8.441406l6.0859378-3.513672a13 13 0 0 1-0.980469-4.927734 13 13 0 0 1 11-12.835938z" opacity=".2"/>
 <path d="m22 4.1210938a20 20 0 0 0-18 19.878906 20 20 0 0 0 1.8945312 8.441406l6.0859378-3.513672a13 13 0 0 1-0.980469-4.927734 13 13 0 0 1 11-12.835938z" fill="#ff6065"/>
 <path d="m33.964844 33.347656a13 13 0 0 1-9.964844 4.652344 13 13 0 0 1-9.945312-4.650391l-6.1152349 3.53125a20 20 0 0 0 16.060547 8.119141 20 20 0 0 0 16.066406-8.128906z" opacity=".2"/>
 <path d="m33.964844 32.347656a13 13 0 0 1-9.964844 4.652344 13 13 0 0 1-9.945312-4.650391l-6.1152349 3.53125a20 20 0 0 0 16.060547 8.119141 20 20 0 0 0 16.066406-8.128906z" fill="#cc74cc"/>
 <path d="m16 27.00012 6 5 8-13" style="fill:none;opacity:.1;stroke-linecap:round;stroke-linejoin:round;stroke-width:4;stroke:#000"/>
 <path d="m16 26 6 5 8-13" fill="none" stroke="#3f3f3f" stroke-linecap="round" stroke-linejoin="round" stroke-width="4"/>
 <g fill="#fff">
  <path d="m26 4.0996094v1a20 20 0 0 1 17.986328 19.6093746 20 20 0 0 0 .013672-.708984 20 20 0 0 0 -18-19.9003906zm10.976562 20.3710936a13 13 0 0 1 -.949218 4.447266l.296875.171875a13 13 0 0 0 .675781-4.089844 13 13 0 0 0 -.023438-.529297z" opacity=".2"/>
  <path d="m22 4.1210938a20 20 0 0 0 -18 19.8789062 20 20 0 0 0 .0214844.408203 20 20 0 0 1 17.9785156-19.2871092zm-10.976562 20.4062502a13 13 0 0 0 -.023438.472656 13 13 0 0 0 .685547 4.097656l.294922-.169922a13 13 0 0 1 -.957031-4.40039z" opacity=".2"/>
 </g>
</svg>

<svg xmlns="http://www.w3.org/2000/svg" width="48" height="48" version="1.1">
 <circle style="opacity:0.2" cx="24" cy="25" r="17"/>
 <circle style="fill:#ffffff" cx="24" cy="24" r="17"/>
 <path style="opacity:0.2" d="M 26,5.0996094 V 12.171875 A 13,13 0 0 1 37,25 13,13 0 0 1 36.027344,29.917969 l 6.083984,3.513672 A 20,20 0 0 0 44,25 20,20 0 0 0 26,5.0996094 Z"/>
 <path style="fill:#6ecc6e" d="M 26,4.0996094 V 11.171875 A 13,13 0 0 1 37,24 13,13 0 0 1 36.027344,28.917969 l 6.083984,3.513672 A 20,20 0 0 0 44,24 20,20 0 0 0 26,4.0996094 Z"/>
 <path style="opacity:0.2" d="M 22,5.1210938 A 20,20 0 0 0 4,25 20,20 0 0 0 5.8945312,33.441406 L 11.980469,29.927734 A 13,13 0 0 1 11,25 13,13 0 0 1 22,12.164062 Z"/>
 <path style="fill:#ff6065" d="M 22,4.1210938 A 20,20 0 0 0 4,24 20,20 0 0 0 5.8945312,32.441406 L 11.980469,28.927734 A 13,13 0 0 1 11,24 13,13 0 0 1 22,11.164062 Z"/>
 <path style="opacity:0.2" d="M 33.964844,33.347656 A 13,13 0 0 1 24,38 13,13 0 0 1 14.054688,33.349609 l -6.1152349,3.53125 A 20,20 0 0 0 24,45 20,20 0 0 0 40.066406,36.871094 Z"/>
 <path style="fill:#cc74cc" d="M 33.964844,32.347656 A 13,13 0 0 1 24,37 13,13 0 0 1 14.054688,32.349609 l -6.1152349,3.53125 A 20,20 0 0 0 24,44 20,20 0 0 0 40.066406,35.871094 Z"/>
 <path style="opacity:0.1;fill:none;stroke:#000000;stroke-width:4;stroke-linecap:round;stroke-linejoin:round" d="m 16,27.00012 6,5 8,-13"/>
 <path style="fill:none;stroke:#3f3f3f;stroke-width:4;stroke-linecap:round;stroke-linejoin:round" d="m 16,26 6,5 8,-13"/>
 <path style="fill:#ffffff;opacity:0.2" d="M 26 4.0996094 L 26 5.0996094 A 20 20 0 0 1 43.986328 24.708984 A 20 20 0 0 0 44 24 A 20 20 0 0 0 26 4.0996094 z M 36.976562 24.470703 A 13 13 0 0 1 36.027344 28.917969 L 36.324219 29.089844 A 13 13 0 0 0 37 25 A 13 13 0 0 0 36.976562 24.470703 z"/>
 <path style="fill:#ffffff;opacity:0.2" d="M 22 4.1210938 A 20 20 0 0 0 4 24 A 20 20 0 0 0 4.0214844 24.408203 A 20 20 0 0 1 22 5.1210938 L 22 4.1210938 z M 11.023438 24.527344 A 13 13 0 0 0 11 25 A 13 13 0 0 0 11.685547 29.097656 L 11.980469 28.927734 A 13 13 0 0 1 11.023438 24.527344 z"/>
</svg>
